X: 28356
T: Muineira De Casu
R: jig
M: 6/8
K: Amixolydian
|:Acd|efe dcd|edc Acd|efe dcB|c2A Acd|
efe dcd|edc Acd|efe dcB|A3:|
|:agf|ecf ecd|edc Acd|efe dcd|e3 agf|
ecf ecd|edc Acd|efe dcB|A3:|
|:ABc|d2 d dcd|edc ABc|d2 d dcB|c2A ABc|
d2 d dcd|edc Acd|efe dcB|1 A3:|2 A6||

